static/svgs/waves/waves.svg

<svg fill="none" height="87" viewBox="0 0 2072 87" width="2072" xmlns="http://www.w3.org/2000/svg"><path d="m0 .5h2072v42.8547s-125.9 43.6453-260.44 43.6453c-134.53 0-194.97-57.2238-365.48-57.2238-170.5 0-228.78 36.856-416.55 36.856-187.78 0-200.73-43.1603-363.324-43.1603-162.595 0-217.992 63.5281-382.745 63.5281s-283.461-32.9764-283.461-32.9764z" fill="#f3fafb"/></svg>

<svg width="2072" height="87" viewBox="0 0 2072 87" fill="none" xmlns="http://www.w3.org/2000/svg">
<path d="M0 0.5H2072V43.3547C2072 43.3547 1946.1 87 1811.56 87C1677.03 87 1616.59 29.7762 1446.08 29.7762C1275.58 29.7762 1217.3 66.6322 1029.53 66.6322C841.75 66.6322 828.8 23.4719 666.206 23.4719C503.611 23.4719 448.214 87 283.461 87C118.708 87 0 54.0236 0 54.0236L0 0.5Z" fill="#F3FAFB"/>
</svg>
